public/sports/casino.svg

<svg width="56" height="56" viewBox="0 0 56 56" fill="none" xmlns="http://www.w3.org/2000/svg">
<path d="M28 6.125C23.6735 6.125 19.4442 7.40795 15.8469 9.8116C12.2496 12.2153 9.44581 15.6317 7.79014 19.6288C6.13448 23.6259 5.70128 28.0243 6.54533 32.2676C7.38938 36.5109 9.47278 40.4087 12.532 43.468C15.5913 46.5272 19.4891 48.6106 23.7324 49.4547C27.9757 50.2987 32.3741 49.8655 36.3712 48.2099C40.3683 46.5542 43.7848 43.7504 46.1884 40.1531C48.5921 36.5558 49.875 32.3265 49.875 28C49.8686 22.2003 47.5619 16.6401 43.4609 12.5391C39.36 8.4381 33.7997 6.13137 28 6.125ZM28 39.375C25.7502 39.375 23.551 38.7079 21.6804 37.458C19.8098 36.2081 18.3518 34.4315 17.4909 32.353C16.6299 30.2745 16.4047 27.9874 16.8436 25.7808C17.2825 23.5743 18.3658 21.5475 19.9567 19.9567C21.5475 18.3658 23.5743 17.2825 25.7809 16.8436C27.9874 16.4047 30.2745 16.6299 32.353 17.4909C34.4315 18.3518 36.2081 19.8098 37.458 21.6804C38.7079 23.551 39.375 25.7502 39.375 28C39.3715 31.0158 38.172 33.907 36.0395 36.0395C33.907 38.172 31.0158 39.3715 28 39.375ZM36.6341 18.1278C34.473 16.2292 31.7454 15.0973 28.875 14.9078V7.89469C33.6036 8.09717 38.1081 9.96621 41.591 13.1709L36.6341 18.1278ZM27.125 14.9078C24.2546 15.0973 21.5271 16.2292 19.3659 18.1278L14.4091 13.1709C17.8919 9.96621 22.3964 8.09717 27.125 7.89469V14.9078ZM18.1278 19.3659C16.2292 21.5271 15.0973 24.2546 14.9078 27.125H7.8947C8.09718 22.3964 9.96622 17.8919 13.1709 14.4091L18.1278 19.3659ZM14.9078 28.875C15.0973 31.7454 16.2292 34.4729 18.1278 36.6341L13.1709 41.5909C9.96622 38.1081 8.09718 33.6036 7.8947 28.875H14.9078ZM19.3659 37.8722C21.5271 39.7708 24.2546 40.9027 27.125 41.0922V48.1053C22.3964 47.9028 17.8919 46.0338 14.4091 42.8291L19.3659 37.8722ZM28.875 41.0922C31.7454 40.9027 34.473 39.7708 36.6341 37.8722L41.591 42.8291C38.1081 46.0338 33.6036 47.9028 28.875 48.1053V41.0922ZM37.8722 36.6341C39.7708 34.4729 40.9027 31.7454 41.0922 28.875H48.1053C47.9028 33.6036 46.0338 38.1081 42.8291 41.5909L37.8722 36.6341ZM41.0922 27.125C40.9027 24.2546 39.7708 21.5271 37.8722 19.3659L42.8291 14.4091C46.0338 17.8919 47.9028 22.3964 48.1053 27.125H41.0922Z" fill="white" stroke="black"/>
</svg>

<svg xmlns="http://www.w3.org/2000/svg" width="56" height="56" fill="none"><path fill="#fff" stroke="#000" d="M28 6.13a21.87 21.87 0 1 0 0 43.74 21.87 21.87 0 0 0 0-43.74Zm0 33.24a11.37 11.37 0 1 1 0-22.74 11.37 11.37 0 0 1 0 22.75Zm8.63-21.24a13.06 13.06 0 0 0-7.76-3.22V7.89c4.73.2 9.24 2.08 12.72 5.28l-4.96 4.96Zm-9.5-3.22c-2.88.19-5.6 1.32-7.76 3.22l-4.96-4.96A20.05 20.05 0 0 1 27.12 7.9v7.02Zm-9 4.46a13.06 13.06 0 0 0-3.22 7.75H7.89c.2-4.72 2.08-9.23 5.28-12.71l4.96 4.96Zm-3.22 9.5c.19 2.88 1.32 5.6 3.22 7.76l-4.96 4.96A20.05 20.05 0 0 1 7.9 28.87h7.02Zm4.46 9a13.06 13.06 0 0 0 7.75 3.22v7.02a20.05 20.05 0 0 1-12.71-5.28l4.96-4.96Zm9.5 3.22c2.88-.19 5.6-1.32 7.76-3.22l4.96 4.96a20.05 20.05 0 0 1-12.72 5.28v-7.02Zm9-4.46a13.06 13.06 0 0 0 3.22-7.76h7.02a20.05 20.05 0 0 1-5.28 12.72l-4.96-4.96Zm3.22-9.5a13.06 13.06 0 0 0-3.22-7.76l4.96-4.96a20.05 20.05 0 0 1 5.28 12.71h-7.02Z"/></svg>
